X:12095
T:Nous étions trois filles
A:Normandie
O:Fance
M:2/4
L:1/8
Q:1/4=110
K:F
FA|c2c2|AFFA|c2c2|G2GG|G2c2|FFFF|F2G2|
C2c>c|cd cB|AGAB|A2G2|F2||
W:
W:Nous étions trois filles
W:Toues à marier
W:Nous nous en allâmes
W:Dans un pré faucher
W:
W:Refrain:
W:Haut le pied mes compagnes
W:Qu'il fait bon danser
W:
W:Nous y rencontrâmes
W:Un jeune berger
W:Il vit la plus jeune
W:Voulut l'embrasser
W:
W:Nous courûmes toutes
W:Pour l'en empêcher
W:Le berger timide
W:La laissa aller
W:
W:Le berger timide
W:La laissa aller
W:Nous nous écriâmes
W:Ah le sot berger !


